X: 5
T: Kneebuckle, The
M: 6/8
L: 1/8
R: jig
K: Ador
|: c/d/ |\
e2 A eAA | ege edB | eAA e/f/ge | dBG A2 c/d/ |
eAA e2 A | e/f/ge edB | def gfe | dB^G A2 :|
|: c |\
aeA gdB | fd/e/f ecA | aea ge/f/g | fdc A2 c |
a2 e g2 d | fdf e2 A | dd/e/f gfe | dB^G A2 :|
